X:0714
T:The Flag Dance.
M:6/8
L:1/8
Q:3/8=104
I: ||
Z:Jack Campin * www.campin.me.uk * 2009
K:D
a|f2d ded|f2d ded|e2f g2f|e2d cBA|d2e f2g|a2a agf |e2f  g2f|e2f Hg2
a|f2d ded|f2d ded|e2f g2f|efd cBA|d2e f2g|a2a abc'|d'2a abg|f2d  d2|]

